packages/core/src/svgs/beam.svg

<svg width="24" height="24" viewBox="0 0 24 24" fill="none" xmlns="http://www.w3.org/2000/svg">
<g clip-path="url(#clip0_31_6932)">
<path d="M0 0H24V24H0V0Z" fill="#042548"/>
<path d="M12 14.5715H15.5571L12 8.5715V4.71436L19.2857 16.7144H12V14.5715Z" fill="#0B76FF"/>
<path d="M12 14.5715H8.42572L12 8.5715V4.71436L4.71429 16.7144H12V14.5715Z" fill="#24C1FF"/>
<path d="M12 10.2856V13.7142H9.85712L12 10.2856Z" fill="#39FFF2"/>
<path d="M12 10.2856V13.7142H14.1429L12 10.2856Z" fill="#00E2C2"/>
<path d="M3.42859 8.46875L11.9914 12.4287V12.8445L3.42859 10.9716V8.46875Z" fill="url(#paint0_linear_31_6932)"/>
<path d="M20.5715 7.31592L11.9915 12.4331V12.5745L20.5715 8.9702V7.31592Z" fill="url(#paint1_linear_31_6932)"/>
<path d="M20.5715 12.2744L11.9915 12.8487V12.7115L20.5715 10.6201V12.2744Z" fill="url(#paint2_linear_31_6932)"/>
<path d="M20.5715 8.97021L11.9915 12.5702V12.7116L20.5715 10.6202V8.97021Z" fill="url(#paint3_linear_31_6932)"/>
</g>
<defs>
<linearGradient id="paint0_linear_31_6932" x1="3.43287" y1="10.6673" x2="8.12145" y2="10.6673" gradientUnits="userSpaceOnUse">
<stop stop-color="white" stop-opacity="0"/>
<stop offset="1" stop-color="white"/>
</linearGradient>
<linearGradient id="paint1_linear_31_6932" x1="20.52" y1="9.93449" x2="15.0643" y2="9.93449" gradientUnits="userSpaceOnUse">
<stop stop-color="#FD76FD" stop-opacity="0"/>
<stop offset="1" stop-color="#FF51FF"/>
</linearGradient>
<linearGradient id="paint2_linear_31_6932" x1="20.61" y1="11.7387" x2="16.1915" y2="11.7387" gradientUnits="userSpaceOnUse">
<stop stop-color="#9D6EFF" stop-opacity="0"/>
<stop offset="1" stop-color="#A18CFF"/>
</linearGradient>
<linearGradient id="paint3_linear_31_6932" x1="20.5629" y1="10.8474" x2="15.5143" y2="10.8474" gradientUnits="userSpaceOnUse">
<stop stop-color="#AE60D6" stop-opacity="0"/>
<stop offset="1" stop-color="#AB38E6"/>
</linearGradient>
<clipPath id="clip0_31_6932">
<rect width="24" height="24" fill="white"/>
</clipPath>
</defs>
</svg>

<svg xmlns="http://www.w3.org/2000/svg" width="24" height="24" fill="none" viewBox="0 0 24 24"><g clip-path="url(#a)"><path fill="#042548" d="M0 0h24v24H0z"/><path fill="#0B76FF" d="M12 14.572h3.557l-3.557-6V4.714l7.286 12H12z"/><path fill="#24C1FF" d="M12 14.572H8.426l3.574-6V4.714l-7.286 12H12z"/><path fill="#39FFF2" d="M12 10.286v3.428H9.857z"/><path fill="#00E2C2" d="M12 10.286v3.428h2.143z"/><path fill="url(#b)" d="m3.429 8.469 8.562 3.96v.415L3.43 10.973z"/><path fill="url(#c)" d="m20.572 7.316-8.58 5.117v.142l8.58-3.605z"/><path fill="url(#d)" d="m20.572 12.274-8.58.575v-.138l8.58-2.09z"/><path fill="url(#e)" d="m20.572 8.97-8.58 3.6v.142l8.58-2.092z"/></g><defs><linearGradient id="b" x1="3.433" x2="8.121" y1="10.667" y2="10.667" gradientUnits="userSpaceOnUse"><stop stop-color="#fff" stop-opacity="0"/><stop offset="1" stop-color="#fff"/></linearGradient><linearGradient id="c" x1="20.52" x2="15.064" y1="9.934" y2="9.934" gradientUnits="userSpaceOnUse"><stop stop-color="#FD76FD" stop-opacity="0"/><stop offset="1" stop-color="#FF51FF"/></linearGradient><linearGradient id="d" x1="20.61" x2="16.192" y1="11.739" y2="11.739" gradientUnits="userSpaceOnUse"><stop stop-color="#9D6EFF" stop-opacity="0"/><stop offset="1" stop-color="#A18CFF"/></linearGradient><linearGradient id="e" x1="20.563" x2="15.514" y1="10.847" y2="10.847" gradientUnits="userSpaceOnUse"><stop stop-color="#AE60D6" stop-opacity="0"/><stop offset="1" stop-color="#AB38E6"/></linearGradient><clipPath id="a"><path fill="#fff" d="M0 0h24v24H0z"/></clipPath></defs></svg>
